!!!COM:	Bach, Johann Sebastian
!!!OMV:	Wachet auf, ruft uns die Stimme
!!!OTL:	Wachet auf, ruft uns die Stimme
**recip	**kern	**fb	**kern	**kern	**kern
*	*part4	*part4	*part3	*part2	*part1
*	*staff4	*	*staff3	*staff2	*staff1
*	*I"Voice	*	*I"Voice	*I"Voice	*I"Voice
*	*I'V	*	*I'V	*I'V	*I'V
*	*clefF4	*	*clefGv2	*clefG2	*clefG2
*	*k[b-e-a-]	*	*k[b-e-a-]	*k[b-e-a-]	*k[b-e-a-]
*	*M2/2	*	*M2/2	*M2/2	*M2/2
=	=	=	=	=	=
2	[1E-	.	2G	2B-	2e-
2	.	.	2B-	2e-	2g
=3	=3	=3	=3	=3	=3
4	4E-]	.	2e-	2g	2.b-
4	4G	.	.	.	.
4	4B-	.	2d	2f	.
4	4A-	.	.	.	4b-
=4	=4	=4	=4	=4	=4
4	4G	6	2e-	2g	2b-
4	4F	.	.	.	.
4	4E-	5 2	2B-	2f	2b-
4	4D	.	.	.	.
=5	=5	=5	=5	=5	=5
4	4E-	6 5	2B-	2g	1cc
4	4BB-	.	.	.	.
2	2F	n	2An	2f	.
=6	=6	=6	=6	=6	=6
1	1BB-;	.	1d;	1f;	1b-;
=7	=7	=7	=7	=7	=7
2	2r	.	2r	2r	2r
4	4B-	.	2d	2f	2b-
4	4A-	.	.	.	.
=8	=8	=8	=8	=8	=8
!!linebreak:original
4	4G	6	2e-	2.b-	2ee-
4	4A-	.	.	.	.
4	4G	6	2e-	.	2b-
4	4F	.	.	4a-	.
=9	=9	=9	=9	=9	=9
4	2E-	.	2B-	4g	4ee-
4	.	.	.	4a-	4ff
4	2e-	5	2e-	2b-	2gg
4	.	6	.	.	.
=10	=10	=10	=10	=10	=10
4	4d	6	2f	2b-	2ff
4	4c	.	.	.	.
4	4B-	5 4 2	2f	2cc	2ee-
4	4An	.	.	.	.
=11	=11	=11	=11	=11	=11
4	2B-	9	2.f	4cc	2dd
4	.	8	.	2b-	.
4	2F	4	.	.	2cc
4	.	n	4c	4an	.
=12	=12	=12	=12	=12	=12
1	1BB-;	.	1d;	1f;	1b-;
=13	=13	=13	=13	=13	=13
2	2r	.	2r	2r	2r
4	4E-	.	2e-	2g	2b-
4	4D-X	.	.	.	.
=14	=14	=14	=14	=14	=14
4	4C	6	2e-	2a-	2ee-
4	4D	.	.	.	.
4	2E-	8	4e-	2g	2b-
4	.	-r7	4d-X	.	.
=15	=15	=15	=15	=15	=15
4	4A-	.	2c	2e-	2cc
4	4B-;	.	.	.	.
2	2c	.	2c	2e-	2g
=16	=16	=16	=16	=16	=16
4	2F	7	4c	2e-	4a-
4	.	.	4B-	.	4g
4	2BB-	8	2A-	2d	2f
4	.	7	.	.	.
=17	=17	=17	=17	=17	=17
1	1E-	.	1G	1B-	1e-
=18:|!	=18:|!	=18:|!	=18:|!	=18:|!	=18:|!
!!linebreak:original
2	2r	.	2r	2r	2r
2	2D	6	2B-	2f	2b-
=19	=19	=19	=19	=19	=19
4	2E-	.	4e-	2.g	2.b-
4	.	.	4d	.	.
4	2F	7	4c	.	.
4	.	6	4d	4f	4a-
=20	=20	=20	=20	=20	=20
4	4G	6	2e-	4B-	2g
4	4A-	.	.	4c	.
4	4B-	8	4B-	2d	2f
4	4BB-	7	4A-	.	.
=21	=21	=21	=21	=21	=21
1	1C;	5	1G;	1c;	1e-;
=22	=22	=22	=22	=22	=22
2	2r	.	2r	2r	2r
4	2D	5	2B-	4d	2b-
4	.	6	.	4e-	.
=23	=23	=23	=23	=23	=23
4	4D	6_	4B-	2f	2.b-
4	4C	.	4c	.	.
4	2BB-	8	2d	2f	.
4	.	7	.	.	4a-
=24	=24	=24	=24	=24	=24
4	4E-	9	4B-	4f	2g
4	4C	3	2c	2e-	.
4	4AA-	6 5	.	.	2f
4	4BB-	.	4B-	4d	.
=25	=25	=25	=25	=25	=25
1	1E-;	.	1G;	1B-;	1e-;
=26	=26	=26	=26	=26	=26
2	2r	.	2r	2r	2r
4	4B-	.	2B-	2d	2f
4	4A-	.	.	.	.
=27	=27	=27	=27	=27	=27
2	2G	6	2B-	2.e-	2g
4	2F	7	4c	.	2a-
4	.	6	4A-	4d	.
=28	=28	=28	=28	=28	=28
1	1E-;	.	1B-;	1e-;	1g;
=29	=29	=29	=29	=29	=29
2	2r	.	2r	2r	2r
2	2e-	.	2e-	2g	2b-
=30	=30	=30	=30	=30	=30
!!pagebreak:original
4	2An	6 5	2e-	4g	2cc
4	.	.	.	4f	.
4	2Bn	6 5	2d	4f	2dd
4	.	.	.	4g	.
=31	=31	=31	=31	=31	=31
2	2c;	.	2c;	2g;	2ee-;
4	2c	5	2e-	4g	4ee-
4	.	6	.	4a-	4ff
=32	=32	=32	=32	=32	=32
4	4G	6	2e-	2.b-	2gg
4	4A-	.	.	.	.
4	2B-	8	2d	.	2ff
4	.	7	.	4a-	.
=33	=33	=33	=33	=33	=33
2	2C;	5	2e-;	2g;	2ee-;
4	4E-	.	2e-	4g	2b-
4	4F	.	.	4a-	.
=34	=34	=34	=34	=34	=34
4	4G	6	2B-	4b-	2ee-
4	4F	.	.	4a-	.
4	4G	6	2e-	4b-	2b-
4	4E-	.	.	4g	.
=35	=35	=35	=35	=35	=35
4	4AA-	.	2.e-	2a-	2cc
4	4BB-	.	.	.	.
4	2C	.	.	2e-	2g
4	.	.	4c	.	.
=36	=36	=36	=36	=36	=36
4	2F	7	4c	2e-	4a-
4	.	.	4B-	.	4g
4	2BB-	8	2A-	2d	2f
4	.	7	.	.	.
=37	=37	=37	=37	=37	=37
1	1E-;	.	1G;	1B-;	1e-;
==	==	==	==	==	==
*-	*-	*-	*-	*-	*-
!!!system-decoration: s1,s2,s3,s4
